X:9614
T:Lilting Banshee, The
T:Ballinasloe Fair
T:The Sligo Jig
T:Banshee, The
T:Miller of Glenmire
R:J
S:As played in Madison, Wisconsin
N:Cf. Chieftains \#9 (Columbia) and Jack and Charlie Coen (Green Linnet 3067). Maire O'Keeffe gave me the additional title "Sligo Jig."
Z:Transcribed by Alan Ng agng@students.wisc.edu 1995 id:ng-jigs-1
E:9
M:6/8
K:ADor
\medskip
D|EAA EAA|BAB G2 A|Bee edB|dBA GED|EAA EAA|BAB G2 A|Bee edB|dAA A2::\
d|eaa age|dBA G2 A|Bee edB|def gfg|eaa age|dBA G2 A|Bee edB|dBA A2:|**
\bigskip


